X:986
T:Ypsilanti Hornpipe
N:Hornpipe
R:reel
B:One Thousand Fiddle Tunes (Cole's)
M:C|
Q:420
K:Bb
fe|:"Bb"dbfd "Eb6"cgec|"Bb"BfdB "F7"AecA|"Bb"BFGA "Eb"Bcde|"C"=ef^fg "F7"ag=f_e|
"Bb"dbfd "Eb"cgec|"Bb"BfdB "F7"AecA|"Bb"Bbfd "F7"cBAc|1"Bb"B2 d2 B2 fe:|2"Bb"B2 d2 B2 AB|
K:F
|:"F"cfef gfef|"G7"dg^fg agfg|"Bb"bagf edc=B|"C"c=Bc^c "C7"ed=c_B|
|"F"Afef gfef|"G7"dg^fg agfg|"Bb"bgec "C7"=Bcde|1"F"f2 a2 f2AB:|2"F" f2 a2 f4|
